public/img/old-svg/like.svg

<svg width="54" height="52" viewBox="0 0 54 52" fill="none" xmlns="http://www.w3.org/2000/svg">
<path d="M54 31.0625C54 29.7103 53.4622 28.4502 52.5353 27.5209C53.586 26.3712 54.1215 24.8299 53.9752 23.2257C53.712 20.3659 51.1357 18.1249 48.1073 18.1249H34.209C34.8975 16.0346 36 12.203 36 9.12496C36 4.24471 31.8533 0.125 29.25 0.125C26.9145 0.125 25.2427 1.44125 25.173 1.49525C24.9052 1.70904 24.7499 2.03304 24.7499 2.37496V10.0047L18.2677 24.0425L17.9999 24.1797V23.7499C17.9999 23.1289 17.4959 22.6249 16.8749 22.6249H5.62496C2.52229 22.625 0 25.1473 0 28.2499V46.25C0 49.3528 2.52229 51.8749 5.62496 51.8749H12.375C14.8072 51.8749 16.8862 50.3224 17.6692 48.1557C19.5413 49.1187 22.0612 49.625 23.625 49.625H44.2778C46.728 49.625 48.8723 47.9734 49.3763 45.6965C49.635 44.522 49.4842 43.3407 48.9713 42.3147C50.6318 41.4799 51.75 39.7632 51.75 37.8125C51.75 37.016 51.5678 36.2532 51.2235 35.5647C52.884 34.7277 54 33.0132 54 31.0625ZM49.2547 33.8389C48.8205 33.8907 48.4537 34.1854 48.3143 34.6017C48.1771 35.018 48.2918 35.4746 48.6113 35.7762C49.1828 36.314 49.5001 37.0384 49.5001 37.8125C49.5001 39.2322 48.4268 40.4247 47.0071 40.5889C46.5729 40.6407 46.2061 40.9354 46.0666 41.3517C45.9294 41.768 46.0442 42.2246 46.3636 42.5262C47.1039 43.2236 47.4009 44.2024 47.1782 45.2105C46.9014 46.466 45.6819 47.375 44.2779 47.375H23.625C21.798 47.375 18.7335 46.5177 17.6715 45.4535C17.3497 45.134 16.8637 45.0395 16.4452 45.2105C16.0245 45.3838 15.75 45.7955 15.75 46.25C15.75 48.1108 14.2358 49.625 12.375 49.625H5.62496C3.76418 49.625 2.24996 48.1108 2.24996 46.25V28.2499C2.24996 26.3891 3.76418 24.8749 5.62496 24.8749H15.75V26C15.75 26.3893 15.9525 26.7514 16.2854 26.9585C16.614 27.1564 17.0279 27.1767 17.3789 27.0057L19.6289 25.8807C19.8562 25.7681 20.0384 25.5791 20.1464 25.3474L26.8964 10.7224C26.9639 10.5739 26.9999 10.4119 26.9999 10.2499V2.98468C27.468 2.72596 28.2803 2.37496 29.25 2.37496C30.483 2.37496 33.75 5.43947 33.75 9.12496C33.75 13.085 31.5945 18.7932 31.5743 18.8495C31.4438 19.1938 31.4888 19.583 31.698 19.889C31.9095 20.1927 32.256 20.375 32.625 20.375H48.1073C49.9837 20.375 51.5768 21.7183 51.7342 23.4328C51.8535 24.7153 51.2369 25.9348 50.1323 26.6165C49.788 26.828 49.5833 27.2105 49.599 27.6178C49.6147 28.025 49.8488 28.3895 50.2087 28.5763C51.1605 29.06 51.7499 30.014 51.7499 31.0625C51.75 32.4822 50.6768 33.6747 49.2547 33.8389Z" fill="#1B5E96"/>
</svg>

<svg width="54" height="52" viewBox="0 0 54 52" fill="none" xmlns="http://www.w3.org/2000/svg"><path d="M54 31.063a5 5 0 00-1.465-3.542 5.586 5.586 0 001.44-4.295c-.263-2.86-2.84-5.101-5.868-5.101H34.21c.688-2.09 1.791-5.922 1.791-9 0-4.88-4.147-9-6.75-9-2.335 0-4.007 1.316-4.077 1.37a1.126 1.126 0 00-.423.88v7.63l-6.482 14.037-.268.138v-.43c0-.621-.504-1.125-1.125-1.125H5.625A5.63 5.63 0 000 28.25v18a5.63 5.63 0 005.625 5.625h6.75a5.638 5.638 0 005.294-3.72c1.872.964 4.392 1.47 5.956 1.47h20.653c2.45 0 4.594-1.652 5.098-3.928a5.08 5.08 0 00-.405-3.382 5.042 5.042 0 002.253-6.75A5.042 5.042 0 0054 31.063zm-4.745 2.776a1.13 1.13 0 00-.94.763c-.138.416-.023.873.296 1.174.572.538.89 1.262.89 2.036a2.804 2.804 0 01-2.494 2.777 1.13 1.13 0 00-.94.763c-.138.416-.023.873.297 1.174.74.698 1.037 1.676.814 2.684-.277 1.256-1.496 2.165-2.9 2.165H23.625c-1.827 0-4.892-.857-5.953-1.922a1.125 1.125 0 00-1.922.797 3.38 3.38 0 01-3.375 3.375h-6.75A3.38 3.38 0 012.25 46.25v-18a3.38 3.38 0 013.375-3.375H15.75V26c0 .39.203.751.535.959a1.15 1.15 0 001.094.047l2.25-1.125c.227-.113.41-.302.517-.534l6.75-14.625c.068-.148.104-.31.104-.472V2.985c.468-.259 1.28-.61 2.25-.61 1.233 0 4.5 3.064 4.5 6.75 0 3.96-2.155 9.668-2.176 9.724-.13.345-.085.734.124 1.04.212.304.558.486.927.486h15.482c1.877 0 3.47 1.343 3.627 3.058a3.361 3.361 0 01-1.602 3.183 1.13 1.13 0 00.076 1.96 2.785 2.785 0 011.542 2.487 2.804 2.804 0 01-2.495 2.776z" fill="#1B5E96"/></svg>
